X:708
%%etbk:tnset id:442,pos:3,rep:3x,ant:
%%etbk:wsite https://thesession.org/tunes/278
%%etbk:video src:ytube,cde:C2IiXBx6EGo,desc:41 min
%%etbk:color #ccffcc
%%etbk:pldat 2016-08-04T18:54,2016-07-22T15:48,2016-04-02T15:09,2016-03-22T16:28,2016-02-10T17:27,2016-01-12T17:32,2016-01-02T13:37,2015-12-28T17:57,2015-12-23T17:02,2015-12-21T19:28,2015-12-16T17:18,2015-08-19T17:16,2015-08-15T14:01,2015-08-13T18:40,2015-08-10T18:56,2015-08-09T15:15,2015-06-03T18:30,2015-06-01T18:00,2015-05-05T17:31,2015-04-29T17:54
T: Johnny Allen's
Z: Piano Box Version by Martin Fleischmann
H: Created 2015-04-29 /  Last Modified 2016-03-22
R: reel
M: 4/4
L: 1/8
K: Dmix
|:"D"!3!A3B !3!A!1!G!2!F!3!A |"C" !1!D!4!c!3!cB ced!3!c | "D"!2!A2BG AGFA | "G"D!3!GGG D!3!G!5!B!1!G |
"D"!2!A2BG AGF!1!G | !1!A!3!d!3!d!4!e !3!f3g | !5!afge !3!(3fg!5!a !1!e!3!^c | !4!dc!1!A!2!F "G"!3!G2FG :|
|: "D"!2!Addc !2!A!1!GF!1!G | !1!A!3!d!3!de !5!fd!4!ec | !1!A!3!ddc !1!A!3!GFA | "G"DGGG DGBG |
"D"!21!Addc AGFG | !2!A!5!d!1!d!2!e !3!f3g | afge (3fga e^c | dcAF "G"G2FG :|
|: "D"!1!A3!5!g !4!f!2!d!5!=fe | "C"!3!dc!1!AB !3!cedc | "D"A3g fd=fe | dcAF "G"G2FG |
"D"A3g fd=fe | "C"dcAB !3!c!1!de!4!g | "D"!3!f!1!d!2!e!1!c !2!(3ded !1!c!2!A | !5!dBcA "G"G2FG :|


